X: 9
T: Wren's Nest, The
C: Frankie Gavin
Z: The Merry Hacksmith
S: https://thesession.org/tunes/119#setting53244
R: jig
M: 6/8
L: 1/8
K: Edor
D|:GAB ded|cAA ABc|BGE EFG|AFD AFD|
GAB ded|cAA ABc|BGE AFD|GEE E2D:|
|:EBe deB|cAA B2A|GAB ded|cAA BGD|
EBe deB|cAA B2A|GAB cAB|1 GEE E2D:|2 GEE FED ||
|:B,DE GED|B,DE E2D|B,DE GAB|AFD FED|
B,DE GED|B,DE E2D|GAB cAB|1 GEE FED:|2 GEE E2D ||

%-------------------- TUNE SEPARATOR --------------------%

